src/plugins/give/assets/dist/images/admin/stripe-s.svg

<svg width="17" height="25" viewBox="0 0 17 25" fill="none" xmlns="http://www.w3.org/2000/svg">
<path fill-rule="evenodd" clip-rule="evenodd" d="M6.79576 7.63898C6.79576 6.60864 7.64116 6.21237 9.04136 6.21237C11.0492 6.21237 13.5854 6.81999 15.5932 7.90316V1.69475C13.4005 0.822936 11.2341 0.479492 9.04136 0.479492C3.67835 0.479492 0.111816 3.27988 0.111816 7.956C0.111816 15.2476 10.1509 14.0852 10.1509 17.229C10.1509 18.4443 9.0942 18.8405 7.61475 18.8405C5.42199 18.8405 2.6216 17.9423 0.402422 16.727V23.0147C2.85937 24.0714 5.34273 24.5206 7.61475 24.5206C13.1098 24.5206 16.8877 21.7994 16.8877 17.0705C16.8613 9.19768 6.79576 10.5979 6.79576 7.63898Z" fill="#6772E5"/>
</svg>

<svg width="17" height="25" fill="none" xmlns="http://www.w3.org/2000/svg"><path fill-rule="evenodd" clip-rule="evenodd" d="M6.796 7.639c0-1.03.845-1.427 2.245-1.427 2.008 0 4.544.608 6.552 1.691V1.695C13.4.823 11.234.479 9.041.479 3.678.48.111 3.28.111 7.956c0 7.292 10.04 6.13 10.04 9.273 0 1.215-1.057 1.611-2.536 1.611-2.193 0-4.993-.898-7.213-2.113v6.288a18.315 18.315 0 007.213 1.506c5.495 0 9.273-2.722 9.273-7.45-.027-7.873-10.092-6.473-10.092-9.432z" fill="#6772E5"/></svg>
